public/img/waves.svg

<svg height="540" viewBox="0 0 960 540" width="960" xmlns="http://www.w3.org/2000/svg"><path d="m0 0h960v540h-960z" fill="#00523a"/><path d="m0 202 11.5-4.3c11.5-4.4 34.5-13 57.3-17.7 22.9-4.7 45.5-5.3 68.4-16.3 22.8-11 45.8-32.4 68.6-28.9 22.9 3.5 45.5 31.9 68.4 43.4 22.8 11.5 45.8 6.1 68.6-16.7 22.9-22.8 45.5-63.2 68.4-74.5 22.8-11.3 45.8 6.3 68.8 30.3s46 54.4 68.8 51.5c22.9-2.8 45.5-38.8 68.4-38.5 22.8.4 45.8 37 68.6 58.9 22.9 21.8 45.5 28.8 68.4 20.1 22.8-8.6 45.8-33 68.6-34 22.9-1 45.5 21.4 68.4 13.7 22.8-7.7 45.8-45.3 57.3-64.2l11.5-18.8v435h-11.5c-11.5 0-34.5 0-57.3 0-22.9 0-45.5 0-68.4 0-22.8 0-45.8 0-68.6 0-22.9 0-45.5 0-68.4 0-22.8 0-45.8 0-68.6 0-22.9 0-45.5 0-68.4 0-22.8 0-45.8 0-68.8 0s-46 0-68.8 0c-22.9 0-45.5 0-68.4 0-22.8 0-45.8 0-68.6 0-22.9 0-45.5 0-68.4 0-22.8 0-45.8 0-68.6 0-22.9 0-45.5 0-68.4 0-22.8 0-45.8 0-57.3 0h-11.5z" fill="#00b884"/><path d="m0 121 11.5 1.8c11.5 1.9 34.5 5.5 57.3 13.7 22.9 8.2 45.5 20.8 68.4 25.5 22.8 4.7 45.8 1.3 68.6 9.3 22.9 8 45.5 27.4 68.4 40 22.8 12.7 45.8 18.7 68.6 3.9 22.9-14.9 45.5-50.5 68.4-61.2 22.8-10.7 45.8 3.7 68.8 9s46 1.7 68.8-7.2c22.9-8.8 45.5-22.8 68.4-30 22.8-7.1 45.8-7.5 68.6 12.5 22.9 20 45.5 60.4 68.4 70 22.8 9.7 45.8-11.3 68.6-14.1 22.9-2.9 45.5 12.5 68.4 22.5 22.8 10 45.8 14.6 57.3 17l11.5 2.3v305h-11.5c-11.5 0-34.5 0-57.3 0-22.9 0-45.5 0-68.4 0-22.8 0-45.8 0-68.6 0-22.9 0-45.5 0-68.4 0-22.8 0-45.8 0-68.6 0-22.9 0-45.5 0-68.4 0-22.8 0-45.8 0-68.8 0s-46 0-68.8 0c-22.9 0-45.5 0-68.4 0-22.8 0-45.8 0-68.6 0-22.9 0-45.5 0-68.4 0-22.8 0-45.8 0-68.6 0-22.9 0-45.5 0-68.4 0-22.8 0-45.8 0-57.3 0h-11.5z" fill="#00ac7b"/><path d="m0 203 11.5 4.8c11.5 4.9 34.5 14.5 57.3 23.4 22.9 8.8 45.5 16.8 68.4 22 22.8 5.1 45.8 7.5 68.6 16.6 22.9 9.2 45.5 25.2 68.4 17.2 22.8-8 45.8-40 68.6-52.3 22.9-12.4 45.5-5 68.4-2.9 22.8 2.2 45.8-.8 68.8-8.3s46-19.5 68.8-27.8c22.9-8.4 45.5-13 68.4-7.5 22.8 5.5 45.8 21.1 68.6 35.6 22.9 14.5 45.5 27.9 68.4 34 22.8 6.2 45.8 5.2 68.6 8.4 22.9 3.1 45.5 10.5 68.4 15.8 22.8 5.3 45.8 8.7 57.3 10.3l11.5 1.7v247h-11.5c-11.5 0-34.5 0-57.3 0-22.9 0-45.5 0-68.4 0-22.8 0-45.8 0-68.6 0-22.9 0-45.5 0-68.4 0-22.8 0-45.8 0-68.6 0-22.9 0-45.5 0-68.4 0-22.8 0-45.8 0-68.8 0s-46 0-68.8 0c-22.9 0-45.5 0-68.4 0-22.8 0-45.8 0-68.6 0-22.9 0-45.5 0-68.4 0-22.8 0-45.8 0-68.6 0-22.9 0-45.5 0-68.4 0-22.8 0-45.8 0-57.3 0h-11.5z" fill="#00a073"/><path d="m0 251 11.5 11c11.5 11 34.5 33 57.3 31.7 22.9-1.4 45.5-26 68.4-26.9 22.8-.8 45.8 22.2 68.6 19.9 22.9-2.4 45.5-30 68.4-35.5 22.8-5.5 45.8 11.1 68.6 18.6 22.9 7.5 45.5 5.9 68.4 12 22.8 6.2 45.8 20.2 68.8 22.5 23 2.4 46-7 68.8-13 22.9-6 45.5-8.6 68.4-17 22.8-8.3 45.8-22.3 68.6-30 22.9-7.6 45.5-9 68.4 0 22.8 9 45.8 28.4 68.6 32 22.9 3.7 45.5-8.3 68.4-18 22.8-9.6 45.8-17 57.3-20.6l11.5-3.7v307h-11.5c-11.5 0-34.5 0-57.3 0-22.9 0-45.5 0-68.4 0-22.8 0-45.8 0-68.6 0-22.9 0-45.5 0-68.4 0-22.8 0-45.8 0-68.6 0-22.9 0-45.5 0-68.4 0-22.8 0-45.8 0-68.8 0s-46 0-68.8 0c-22.9 0-45.5 0-68.4 0-22.8 0-45.8 0-68.6 0-22.9 0-45.5 0-68.4 0-22.8 0-45.8 0-68.6 0-22.9 0-45.5 0-68.4 0-22.8 0-45.8 0-57.3 0h-11.5z" fill="#00946a"/><path d="m0 334 11.5-1.8c11.5-1.9 34.5-5.5 57.3-2.9 22.9 2.7 45.5 11.7 68.4 23 22.8 11.4 45.8 25 68.6 20 22.9-5 45.5-28.6 68.4-30.5 22.8-1.8 45.8 18.2 68.6 19.7 22.9 1.5 45.5-15.5 68.4-13.7 22.8 1.9 45.8 22.5 68.8 19.5s46-29.6 68.8-34.5c22.9-4.8 45.5 12.2 68.4 17.2 22.8 5 45.8-2 68.6-11.3 22.9-9.4 45.5-21 68.4-27.9 22.8-6.8 45.8-8.8 68.6 5.7 22.9 14.5 45.5 45.5 68.4 55.8 22.8 10.4 45.8 0 57.3-5.1l11.5-5.2v179h-11.5c-11.5 0-34.5 0-57.3 0-22.9 0-45.5 0-68.4 0-22.8 0-45.8 0-68.6 0-22.9 0-45.5 0-68.4 0-22.8 0-45.8 0-68.6 0-22.9 0-45.5 0-68.4 0-22.8 0-45.8 0-68.8 0s-46 0-68.8 0c-22.9 0-45.5 0-68.4 0-22.8 0-45.8 0-68.6 0-22.9 0-45.5 0-68.4 0-22.8 0-45.8 0-68.6 0-22.9 0-45.5 0-68.4 0-22.8 0-45.8 0-57.3 0h-11.5z" fill="#008862"/><path d="m0 378 11.5 4.3c11.5 4.4 34.5 13 57.3 11.2 22.9-1.8 45.5-14.2 68.4-16.5 22.8-2.3 45.8 5.3 68.6 14.2 22.9 8.8 45.5 18.8 68.4 13.8 22.8-5 45.8-25 68.6-34.7 22.9-9.6 45.5-9 68.4-12.5 22.8-3.5 45.8-11.1 68.8.2s46 41.7 68.8 48.5c22.9 6.8 45.5-9.8 68.4-11.3 22.8-1.5 45.8 12.1 68.6 12 22.9-.2 45.5-14.2 68.4-12.2 22.8 2 45.8 20 68.6 18.2 22.9-1.9 45.5-23.5 68.4-38.2 22.8-14.7 45.8-22.3 57.3-26.2l11.5-3.8v196h-11.5c-11.5 0-34.5 0-57.3 0-22.9 0-45.5 0-68.4 0-22.8 0-45.8 0-68.6 0-22.9 0-45.5 0-68.4 0-22.8 0-45.8 0-68.6 0-22.9 0-45.5 0-68.4 0-22.8 0-45.8 0-68.8 0s-46 0-68.8 0c-22.9 0-45.5 0-68.4 0-22.8 0-45.8 0-68.6 0-22.9 0-45.5 0-68.4 0-22.8 0-45.8 0-68.6 0-22.9 0-45.5 0-68.4 0-22.8 0-45.8 0-57.3 0h-11.5z" fill="#007d59"/><path d="m0 454 11.5-3.5c11.5-3.5 34.5-10.5 57.3-20.7 22.9-10.1 45.5-23.5 68.4-24.8 22.8-1.3 45.8 9.3 68.6 16.8 22.9 7.5 45.5 11.9 68.4 17.7 22.8 5.8 45.8 13.2 68.6 10 22.9-3.2 45.5-16.8 68.4-18.7 22.8-1.8 45.8 8.2 68.8 13.4 23 5.1 46 5.5 68.8 1.6 22.9-3.8 45.5-11.8 68.4-16.5 22.8-4.6 45.8-6 68.6-10.8 22.9-4.8 45.5-13.2 68.4-18.2 22.8-5 45.8-6.6 68.6-6 22.9.7 45.5 3.7 68.4 4.2 22.8.5 45.8-1.5 57.3-2.5l11.5-1v146h-11.5c-11.5 0-34.5 0-57.3 0-22.9 0-45.5 0-68.4 0-22.8 0-45.8 0-68.6 0-22.9 0-45.5 0-68.4 0-22.8 0-45.8 0-68.6 0-22.9 0-45.5 0-68.4 0-22.8 0-45.8 0-68.8 0s-46 0-68.8 0c-22.9 0-45.5 0-68.4 0-22.8 0-45.8 0-68.6 0-22.9 0-45.5 0-68.4 0-22.8 0-45.8 0-68.6 0-22.9 0-45.5 0-68.4 0-22.8 0-45.8 0-57.3 0h-11.5z" fill="#007151"/><path d="m0 464 11.5-3.2c11.5-3.1 34.5-9.5 57.3-4.6 22.9 4.8 45.5 20.8 68.4 32.1 22.8 11.4 45.8 18 68.6 15 22.9-3 45.5-15.6 68.4-23 22.8-7.3 45.8-9.3 68.6-14.5 22.9-5.1 45.5-13.5 68.4-10 22.8 3.5 45.8 18.9 68.8 27 23 8.2 46 9.2 68.8 3.2 22.9-6 45.5-19 68.4-25.7 22.8-6.6 45.8-7 68.6-3.1 22.9 3.8 45.5 11.8 68.4 21.3 22.8 9.5 45.8 20.5 68.6 19.5 22.9-1 45.5-14 68.4-14 22.8 0 45.8 13 57.3 19.5l11.5 6.5v31h-11.5c-11.5 0-34.5 0-57.3 0-22.9 0-45.5 0-68.4 0-22.8 0-45.8 0-68.6 0-22.9 0-45.5 0-68.4 0-22.8 0-45.8 0-68.6 0-22.9 0-45.5 0-68.4 0-22.8 0-45.8 0-68.8 0s-46 0-68.8 0c-22.9 0-45.5 0-68.4 0-22.8 0-45.8 0-68.6 0-22.9 0-45.5 0-68.4 0-22.8 0-45.8 0-68.6 0-22.9 0-45.5 0-68.4 0-22.8 0-45.8 0-57.3 0h-11.5z" fill="#006649"/></svg>

<svg id="visual" viewBox="0 0 960 540" width="960" height="540" xmlns="http://www.w3.org/2000/svg" xmlns:xlink="http://www.w3.org/1999/xlink" version="1.1"><rect x="0" y="0" width="960" height="540" fill="#00523A"></rect><path d="M0 202L11.5 197.7C23 193.3 46 184.7 68.8 180C91.7 175.3 114.3 174.7 137.2 163.7C160 152.7 183 131.3 205.8 134.8C228.7 138.3 251.3 166.7 274.2 178.2C297 189.7 320 184.3 342.8 161.5C365.7 138.7 388.3 98.3 411.2 87C434 75.7 457 93.3 480 117.3C503 141.3 526 171.7 548.8 168.8C571.7 166 594.3 130 617.2 130.3C640 130.7 663 167.3 685.8 189.2C708.7 211 731.3 218 754.2 209.3C777 200.7 800 176.3 822.8 175.3C845.7 174.3 868.3 196.7 891.2 189C914 181.3 937 143.7 948.5 124.8L960 106L960 541L948.5 541C937 541 914 541 891.2 541C868.3 541 845.7 541 822.8 541C800 541 777 541 754.2 541C731.3 541 708.7 541 685.8 541C663 541 640 541 617.2 541C594.3 541 571.7 541 548.8 541C526 541 503 541 480 541C457 541 434 541 411.2 541C388.3 541 365.7 541 342.8 541C320 541 297 541 274.2 541C251.3 541 228.7 541 205.8 541C183 541 160 541 137.2 541C114.3 541 91.7 541 68.8 541C46 541 23 541 11.5 541L0 541Z" fill="#00b884"></path><path d="M0 121L11.5 122.8C23 124.7 46 128.3 68.8 136.5C91.7 144.7 114.3 157.3 137.2 162C160 166.7 183 163.3 205.8 171.3C228.7 179.3 251.3 198.7 274.2 211.3C297 224 320 230 342.8 215.2C365.7 200.3 388.3 164.7 411.2 154C434 143.3 457 157.7 480 163C503 168.3 526 164.7 548.8 155.8C571.7 147 594.3 133 617.2 125.8C640 118.7 663 118.3 685.8 138.3C708.7 158.3 731.3 198.7 754.2 208.3C777 218 800 197 822.8 194.2C845.7 191.3 868.3 206.7 891.2 216.7C914 226.7 937 231.3 948.5 233.7L960 236L960 541L948.5 541C937 541 914 541 891.2 541C868.3 541 845.7 541 822.8 541C800 541 777 541 754.2 541C731.3 541 708.7 541 685.8 541C663 541 640 541 617.2 541C594.3 541 571.7 541 548.8 541C526 541 503 541 480 541C457 541 434 541 411.2 541C388.3 541 365.7 541 342.8 541C320 541 297 541 274.2 541C251.3 541 228.7 541 205.8 541C183 541 160 541 137.2 541C114.3 541 91.7 541 68.8 541C46 541 23 541 11.5 541L0 541Z" fill="#00ac7b"></path><path d="M0 203L11.5 207.8C23 212.7 46 222.3 68.8 231.2C91.7 240 114.3 248 137.2 253.2C160 258.3 183 260.7 205.8 269.8C228.7 279 251.3 295 274.2 287C297 279 320 247 342.8 234.7C365.7 222.3 388.3 229.7 411.2 231.8C434 234 457 231 480 223.5C503 216 526 204 548.8 195.7C571.7 187.3 594.3 182.7 617.2 188.2C640 193.7 663 209.3 685.8 223.8C708.7 238.3 731.3 251.7 754.2 257.8C777 264 800 263 822.8 266.2C845.7 269.3 868.3 276.7 891.2 282C914 287.3 937 290.7 948.5 292.3L960 294L960 541L948.5 541C937 541 914 541 891.2 541C868.3 541 845.7 541 822.8 541C800 541 777 541 754.2 541C731.3 541 708.7 541 685.8 541C663 541 640 541 617.2 541C594.3 541 571.7 541 548.8 541C526 541 503 541 480 541C457 541 434 541 411.2 541C388.3 541 365.7 541 342.8 541C320 541 297 541 274.2 541C251.3 541 228.7 541 205.8 541C183 541 160 541 137.2 541C114.3 541 91.7 541 68.8 541C46 541 23 541 11.5 541L0 541Z" fill="#00a073"></path><path d="M0 251L11.5 262C23 273 46 295 68.8 293.7C91.7 292.3 114.3 267.7 137.2 266.8C160 266 183 289 205.8 286.7C228.7 284.3 251.3 256.7 274.2 251.2C297 245.7 320 262.3 342.8 269.8C365.7 277.3 388.3 275.7 411.2 281.8C434 288 457 302 480 304.3C503 306.7 526 297.3 548.8 291.3C571.7 285.3 594.3 282.7 617.2 274.3C640 266 663 252 685.8 244.3C708.7 236.7 731.3 235.3 754.2 244.3C777 253.3 800 272.7 822.8 276.3C845.7 280 868.3 268 891.2 258.3C914 248.7 937 241.3 948.5 237.7L960 234L960 541L948.5 541C937 541 914 541 891.2 541C868.3 541 845.7 541 822.8 541C800 541 777 541 754.2 541C731.3 541 708.7 541 685.8 541C663 541 640 541 617.2 541C594.3 541 571.7 541 548.8 541C526 541 503 541 480 541C457 541 434 541 411.2 541C388.3 541 365.7 541 342.8 541C320 541 297 541 274.2 541C251.3 541 228.7 541 205.8 541C183 541 160 541 137.2 541C114.3 541 91.7 541 68.8 541C46 541 23 541 11.5 541L0 541Z" fill="#00946a"></path><path d="M0 334L11.5 332.2C23 330.3 46 326.7 68.8 329.3C91.7 332 114.3 341 137.2 352.3C160 363.7 183 377.3 205.8 372.3C228.7 367.3 251.3 343.7 274.2 341.8C297 340 320 360 342.8 361.5C365.7 363 388.3 346 411.2 347.8C434 349.7 457 370.3 480 367.3C503 364.3 526 337.7 548.8 332.8C571.7 328 594.3 345 617.2 350C640 355 663 348 685.8 338.7C708.7 329.3 731.3 317.7 754.2 310.8C777 304 800 302 822.8 316.5C845.7 331 868.3 362 891.2 372.3C914 382.7 937 372.3 948.5 367.2L960 362L960 541L948.5 541C937 541 914 541 891.2 541C868.3 541 845.7 541 822.8 541C800 541 777 541 754.2 541C731.3 541 708.7 541 685.8 541C663 541 640 541 617.2 541C594.3 541 571.7 541 548.8 541C526 541 503 541 480 541C457 541 434 541 411.2 541C388.3 541 365.7 541 342.8 541C320 541 297 541 274.2 541C251.3 541 228.7 541 205.8 541C183 541 160 541 137.2 541C114.3 541 91.7 541 68.8 541C46 541 23 541 11.5 541L0 541Z" fill="#008862"></path><path d="M0 378L11.5 382.3C23 386.7 46 395.3 68.8 393.5C91.7 391.7 114.3 379.3 137.2 377C160 374.7 183 382.3 205.8 391.2C228.7 400 251.3 410 274.2 405C297 400 320 380 342.8 370.3C365.7 360.7 388.3 361.3 411.2 357.8C434 354.3 457 346.7 480 358C503 369.3 526 399.7 548.8 406.5C571.7 413.3 594.3 396.7 617.2 395.2C640 393.7 663 407.3 685.8 407.2C708.7 407 731.3 393 754.2 395C777 397 800 415 822.8 413.2C845.7 411.3 868.3 389.7 891.2 375C914 360.3 937 352.7 948.5 348.8L960 345L960 541L948.5 541C937 541 914 541 891.2 541C868.3 541 845.7 541 822.8 541C800 541 777 541 754.2 541C731.3 541 708.7 541 685.8 541C663 541 640 541 617.2 541C594.3 541 571.7 541 548.8 541C526 541 503 541 480 541C457 541 434 541 411.2 541C388.3 541 365.7 541 342.8 541C320 541 297 541 274.2 541C251.3 541 228.7 541 205.8 541C183 541 160 541 137.2 541C114.3 541 91.7 541 68.8 541C46 541 23 541 11.5 541L0 541Z" fill="#007d59"></path><path d="M0 454L11.5 450.5C23 447 46 440 68.8 429.8C91.7 419.7 114.3 406.3 137.2 405C160 403.7 183 414.3 205.8 421.8C228.7 429.3 251.3 433.7 274.2 439.5C297 445.3 320 452.7 342.8 449.5C365.7 446.3 388.3 432.7 411.2 430.8C434 429 457 439 480 444.2C503 449.3 526 449.7 548.8 445.8C571.7 442 594.3 434 617.2 429.3C640 424.7 663 423.3 685.8 418.5C708.7 413.7 731.3 405.3 754.2 400.3C777 395.3 800 393.7 822.8 394.3C845.7 395 868.3 398 891.2 398.5C914 399 937 397 948.5 396L960 395L960 541L948.5 541C937 541 914 541 891.2 541C868.3 541 845.7 541 822.8 541C800 541 777 541 754.2 541C731.3 541 708.7 541 685.8 541C663 541 640 541 617.2 541C594.3 541 571.7 541 548.8 541C526 541 503 541 480 541C457 541 434 541 411.2 541C388.3 541 365.7 541 342.8 541C320 541 297 541 274.2 541C251.3 541 228.7 541 205.8 541C183 541 160 541 137.2 541C114.3 541 91.7 541 68.8 541C46 541 23 541 11.5 541L0 541Z" fill="#007151"></path><path d="M0 464L11.5 460.8C23 457.7 46 451.3 68.8 456.2C91.7 461 114.3 477 137.2 488.3C160 499.7 183 506.3 205.8 503.3C228.7 500.3 251.3 487.7 274.2 480.3C297 473 320 471 342.8 465.8C365.7 460.7 388.3 452.3 411.2 455.8C434 459.3 457 474.7 480 482.8C503 491 526 492 548.8 486C571.7 480 594.3 467 617.2 460.3C640 453.7 663 453.3 685.8 457.2C708.7 461 731.3 469 754.2 478.5C777 488 800 499 822.8 498C845.7 497 868.3 484 891.2 484C914 484 937 497 948.5 503.5L960 510L960 541L948.5 541C937 541 914 541 891.2 541C868.3 541 845.7 541 822.8 541C800 541 777 541 754.2 541C731.3 541 708.7 541 685.8 541C663 541 640 541 617.2 541C594.3 541 571.7 541 548.8 541C526 541 503 541 480 541C457 541 434 541 411.2 541C388.3 541 365.7 541 342.8 541C320 541 297 541 274.2 541C251.3 541 228.7 541 205.8 541C183 541 160 541 137.2 541C114.3 541 91.7 541 68.8 541C46 541 23 541 11.5 541L0 541Z" fill="#006649"></path></svg>
